rospo-icon-theme-classic-common/48x48/apps/evelauncher.svg

<svg height="48" width="48" xmlns="http://www.w3.org/2000/svg"><rect fill="#4f4f4f" height="40" rx="2" transform="matrix(0 -1 -1 0 0 0)" width="40" x="-44" y="-44"/><path d="m6 4c-1.108 0-2 .892-2 2v1c0-1.108.892-2 2-2h36c1.108 0 2 .892 2 2v-1c0-1.108-.892-2-2-2z" fill="#fff" opacity=".1"/><path d="m6 45c-1.108 0-2-.892-2-2v-1c0 1.108.892 2 2 2h36c1.108 0 2-.892 2-2v1c0 1.108-.892 2-2 2z" opacity=".2"/><path d="m10 11v6 2h6v-2h22v-6zm0 11v6h28v-6zm0 9v2 6h28v-6h-22v-2z" opacity=".2"/><path d="m10 10v6 2h6v-2h22v-6zm0 11v6h28v-6zm0 9v2 6h28v-6h-22v-2z" fill="#fff"/></svg>

<svg xmlns="http://www.w3.org/2000/svg" width="48" height="48" version="1">
 <rect fill="#4f4f4f" width="40" height="40" x="-44" y="-44" rx="2" ry="2" transform="matrix(0,-1,-1,0,0,0)"/>
 <path fill="#fff" opacity=".1" d="m6 4c-1.108 0-2 0.892-2 2v1c0-1.108 0.892-2 2-2h36c1.108 0 2 0.892 2 2v-1c0-1.108-0.892-2-2-2h-36z"/>
 <path opacity=".2" d="m6 45c-1.108 0-2-0.892-2-2v-1c0 1.108 0.892 2 2 2h36c1.108 0 2-0.892 2-2v1c0 1.108-0.892 2-2 2h-36z"/>
 <path d="m 10,11 v 6 2 h 6 v -2 h 22 v -6 z m 0,11 v 6 h 28 v -6 z m 0,9 v 2 6 H 38 V 33 H 16 v -2 z" style="opacity:0.2"/>
 <path style="fill:#ffffff" d="M 10 10 L 10 16 L 10 18 L 16 18 L 16 16 L 38 16 L 38 10 L 10 10 z M 10 21 L 10 27 L 38 27 L 38 21 L 10 21 z M 10 30 L 10 32 L 10 38 L 38 38 L 38 32 L 16 32 L 16 30 L 10 30 z"/>
</svg>
